!!!XEN: Niski'gwun's dream song
!!!AGN: Song connected with Odjib'we's personal experience in war
!!!COM: Anonymous
!!!CNT: Native American -- Ojibway
!!!TXO: Ojibway
!!!MLC: White Earth reservation, northern Minnesota, U.S.A.
!!!MRD: 1909-1912///
!!!MPN: Niski'gwun ("Ruffled feathers")
**kern
*MM88
*Imale
*k[f#]
*clefF4
*M3/4
8.d
16d
=1
2.e-
=2
*M2/4
2d
=3
*M3/4
4d
4B<
8.d
16d
=4
[2d
16.d]
32e
8d
=5
*M2/4
8.B
16c
8B
8A
=6
*M3/4
4G
4.G
8G
=7
*M2/4
[2G
=8
4G]
4d
=9
[4B
16.B]
32c
16B
16A
=10
16G
8.G
8G
8G
=11
4E
8.G
16G
=12
*M3/4
[2G
16.G]
32A
8G
=13
4E
4E
8E
8E
=14
*M2/4
2D
=15
*M3/4
4D
4BB
8.D
16D
=16
*M2/4
2D
=17
8D
8D
4BB
=18
2GG
==
*-
!!!OCL: Frances Densmore
!!!YOR: Chippewa [i.e., Ojibway] Music--II, Bulletin 53 of the Bureau of American Ethnology, Smitsonian Institution
!!!ONM: 7
!!!PPG: 79
!!!PUB: published
!!!PPR: Government Printing Office
!!!PPP: Washington, D.C.
!!!PDT: 1912///
!!!EST: missing clef changes, text, drum tempo, and drum part
!!!YEC: Copyright 1998 Paul von Hippel
!!!YEM: Rights to all derivate electronic formats reserved.
!!!EFL: 23/42
